Flat-Remix-Dark/apps/scalable/brackets.svg

<svg xmlns="http://www.w3.org/2000/svg" xmlns:xlink="http://www.w3.org/1999/xlink" width="384pt" height="384pt" version="1.1" viewBox="0 0 384 384"> <defs> <filter id="alpha" width="100%" height="100%" x="0%" y="0%" filterUnits="objectBoundingBox"> <feColorMatrix in="SourceGraphic" type="matrix" values="0 0 0 0 1 0 0 0 0 1 0 0 0 0 1 0 0 0 1 0"/> </filter> <mask id="mask0"> <g filter="url(#alpha)"> <rect width="384" height="384" x="0" y="0" style="fill:rgb(0%,0%,0%);fill-opacity:0.301961"/> </g> </mask> <clipPath id="clip1"> <rect width="384" height="384" x="0" y="0"/> </clipPath> <g id="surface5" clip-path="url(#clip1)"> <path style="fill:rgb(100.000%,100.000%,100.000%)" d="M 57.417969 23.25 C 44.644531 23.25 34.363281 33.53125 34.363281 46.304688 L 34.363281 53.804688 C 34.363281 41.03125 44.644531 30.75 57.417969 30.75 L 326.578125 30.75 C 339.347656 30.75 349.628906 41.03125 349.628906 53.804688 L 349.628906 46.304688 C 349.628906 33.53125 339.347656 23.25 326.578125 23.25 Z M 57.417969 23.25"/> </g> </defs> <g> <path style="fill:rgb(13.333%,31.764%,62.745%)" d="M 34.363281 315.292969 L 34.363281 332.476562 C 34.363281 348.136719 44.644531 360.746094 57.417969 360.746094 L 326.578125 360.746094 C 339.347656 360.746094 349.628906 348.136719 349.628906 332.476562 L 349.628906 315.292969 Z M 34.363281 315.292969"/> <path style="fill:rgb(23.137%,54.509%,72.156%)" d="M 57.414062 23.246094 L 326.574219 23.246094 C 339.304688 23.246094 349.625 33.566406 349.625 46.300781 L 349.625 315.457031 C 349.625 328.191406 339.304688 338.511719 326.574219 338.511719 L 57.414062 338.511719 C 44.683594 338.511719 34.359375 328.191406 34.359375 315.457031 L 34.359375 46.300781 C 34.359375 33.566406 44.683594 23.246094 57.414062 23.246094 Z M 57.414062 23.246094"/> <path style="fill:rgb(100.000%,100.000%,100.000%)" d="M 80.800781 54.3125 L 303.175781 54.3125 C 311.664062 54.3125 318.546875 61.195312 318.546875 69.683594 L 318.546875 292.058594 C 318.546875 300.550781 311.664062 307.433594 303.175781 307.433594 L 80.800781 307.433594 C 72.308594 307.433594 65.425781 300.550781 65.425781 292.058594 L 65.425781 69.683594 C 65.425781 61.195312 72.308594 54.3125 80.800781 54.3125 Z M 80.800781 54.3125"/> <path style="fill:rgb(45.098%,46.274%,50.196%)" d="M 116.0625 120.5625 L 116.0625 272.433594 L 183.558594 272.433594 L 183.558594 238.683594 L 149.808594 238.683594 L 149.808594 154.3125 L 183.558594 154.3125 L 183.558594 120.5625 Z M 200.433594 120.5625 L 200.433594 154.3125 L 234.183594 154.3125 L 234.183594 238.683594 L 200.433594 238.683594 L 200.433594 272.433594 L 267.933594 272.433594 L 267.933594 120.5625 Z M 200.433594 120.5625"/> <path style="fill:rgb(20.000%,21.176%,26.274%)" d="M 116.0625 104.0625 L 116.0625 255.933594 L 183.558594 255.933594 L 183.558594 222.183594 L 149.808594 222.183594 L 149.808594 137.8125 L 183.558594 137.8125 L 183.558594 104.0625 Z M 200.433594 104.0625 L 200.433594 137.8125 L 234.183594 137.8125 L 234.183594 222.183594 L 200.433594 222.183594 L 200.433594 255.933594 L 267.933594 255.933594 L 267.933594 104.0625 Z M 200.433594 104.0625"/> <use mask="url(#mask0)" xlink:href="#surface5"/> </g> </svg>

<svg width="512" height="512" version="1.1" viewBox="0 0 384 384" xmlns="http://www.w3.org/2000/svg"><defs><clipPath><rect width="384" height="384"/></clipPath></defs><path d="m34.363 315.29v17.184c0 15.66 10.281 28.27 23.055 28.27h269.16c12.77 0 23.051-12.609 23.051-28.27v-17.184z" fill="#21509f"/><path d="m57.414 23.246h269.16c12.73 0 23.051 10.32 23.051 23.055v269.16c0 12.734-10.32 23.055-23.051 23.055h-269.16c-12.73 0-23.055-10.32-23.055-23.055v-269.16c0-12.734 10.324-23.055 23.055-23.055z" fill="#3a8ab7"/><path d="m80.801 54.312h222.38c8.4883 0 15.371 6.8828 15.371 15.371v222.38c0 8.4922-6.8828 15.375-15.371 15.375h-222.38c-8.4922 0-15.375-6.8828-15.375-15.375v-222.38c0-8.4883 6.8828-15.371 15.375-15.371z" fill="#fff"/><path d="m116.06 120.56v151.87h67.496v-33.75h-33.75v-84.371h33.75v-33.75zm84.371 0v33.75h33.75v84.371h-33.75v33.75h67.5v-151.87z" fill="#72757f"/><path d="m116.06 104.06v151.87h67.496v-33.75h-33.75v-84.371h33.75v-33.75zm84.371 0v33.75h33.75v84.371h-33.75v33.75h67.5v-151.87z" fill="#333542"/><path transform="scale(.75)" d="m76.553 30.994c-16.974 0-30.74 13.761-30.74 30.74v10c0-16.979 13.766-30.74 30.74-30.74h358.88c16.974 0 30.734 13.761 30.734 30.74v-10c0-16.979-13.76-30.74-30.734-30.74h-358.88z" fill="#fff" opacity=".3" stroke-width="1.3333"/></svg>
